X:1
T:Rotterdam, 76.76 D
T:Rotterdam, 76.76 D
T:Berthold Tours, 1875
T:Public Domain Courtesy of the Cyber Hymnal™
C:Berthold Tours, 1875
Z:Public Domain
Z:Courtesy of the Cyber Hymnal™
%%score ( 1 2 ) ( 3 4 )
L:1/8
Q:1/4=110
M:4/4
K:G
V:1 treble 
V:2 treble 
V:3 bass 
V:4 bass 
V:1
 [DB]2 | [Dd]2 [B,G]2 [Ec]2 [Dc]2 | [DB]4 [DG]2 [CE]2 | [B,D]2 [DG]2 [FB]2 [FA]2 | G6 [GB]2 | %5
 [Gd]2 G2 [Fc]2 [Ec]2 | [^DB]4 [EG]2 [EB]2 | [FA]2 [Dd]2 [DF]2 [^CE]2 | D6 D2 | %9
 [Dc]2 [DB]2 [DA]2 [DG]2 | [DG]4 [DF]2 [DA]2 | [DG]2 [DB]2 [Dd]2 [Dc]2 | [DB]6 G2 | %13
 [Ee]2 [=Fd]2 [Ec]2 [EB]2 | ([EA]2 [DG]2) [CF]2 [_B,E]2 | [B,D]2 (Gc) [GB]2 [FA]2 | G6 |] %17
V:2
 x2 | x8 | x8 | x8 | G6 x2 | x2 G2 x4 | x8 | x8 | D6 D2 | x8 | x8 | x8 | x6 G2 | x8 | x8 | %15
 x2 G2 x4 | G6 |] %17
V:3
 [G,,G,]2 | [B,,G,]2 [E,G,]2 [A,,G,]2 [D,F,]2 | [G,,G,]4 [B,,G,]2 [C,G,]2 | %3
 [D,G,]2 [D,B,]2 [D,D]2 [D,C]2 | [G,B,]6 [G,,D]2 | [B,,D]2 [E,B,]2 [A,,A,]2 [A,,G,]2 | %6
 [B,,F,]4 [E,G,]2 [G,^C]2 | [F,D]2 (F,G,) [A,,A,]2 [A,,G,]2 | [D,F,]6 D,2 | %9
 [F,,A,]2 [G,,G,]2 [A,,F,]2 [B,,G,]2 | [C,A,]4 [C,A,]2 [C,F,]2 | [B,,D]2 [G,B,]2 [E,G,]2 [F,A,]2 | %12
 G,6 G,2 | [C,G,]2 [C,^G,]2 [C,A,]2 [C,D]2 | (C2 B,2) [=C,A,]2 [^C,G,]2 | %15
 [D,G,]2 (B,E) [D,D]2 [D,C]2 | [G,,B,]6 |] %17
V:4
 x2 | x8 | x8 | x8 | x8 | x8 | x8 | x2 B,,2 x4 | x6 D,2 | x8 | x8 | x8 | G,6 G,2 | x8 | ^C,4 x4 | %15
 x2 D,2 x4 | x6 |] %17

